X:316
T:Rolling in the Rye Grass
Z: id:dc-reel-294
M:C
L:1/8
K:D Mixolydian
B|A3F DFAF|G2BG cGBG|A3F DFAF|GBAG F2D:|!
B|ABde f2df|g2eg fedB|ABde fefg|afdf e2dB|!
ABde f2df|g2eg fedB|ABde faab|afdf e2d|]!
B|A3c BAGF|GABc dBAG|FGAc BGGB|AFDF E2DF|!
A3c BAGF|GABc dBAG|FGAB defb|afdf e2d:|!

